public/logos/discord.svg

<!DOCTYPE svg PUBLIC "-//W3C//DTD SVG 1.1//EN" "http://www.w3.org/Graphics/SVG/1.1/DTD/svg11.dtd">
<!-- Uploaded to: SVG Repo, www.svgrepo.com, Transformed by: SVG Repo Mixer Tools -->
<svg width="800px" height="800px" viewBox="-84.48 -84.48 424.96 424.96" version="1.1" xmlns="http://www.w3.org/2000/svg" xmlns:xlink="http://www.w3.org/1999/xlink" preserveAspectRatio="xMidYMid" fill="#000000" stroke="#000000" stroke-width="0.00256" transform="rotate(0)">
<g id="SVGRepo_bgCarrier" stroke-width="0" transform="translate(0,0), scale(1)"/>
<g id="SVGRepo_tracerCarrier" stroke-linecap="round" stroke-linejoin="round" stroke="#e8e8e8" stroke-width="13.312000000000001"> <g> <path d="M216.856339,16.5966031 C200.285002,8.84328665 182.566144,3.2084988 164.041564,0 C161.766523,4.11318106 159.108624,9.64549908 157.276099,14.0464379 C137.583995,11.0849896 118.072967,11.0849896 98.7430163,14.0464379 C96.9108417,9.64549908 94.1925838,4.11318106 91.8971895,0 C73.3526068,3.2084988 55.6133949,8.86399117 39.0420583,16.6376612 C5.61752293,67.146514 -3.4433191,116.400813 1.08711069,164.955721 C23.2560196,181.510915 44.7403634,191.567697 65.8621325,198.148576 C71.0772151,190.971126 75.7283628,183.341335 79.7352139,175.300261 C72.104019,172.400575 64.7949724,168.822202 57.8887866,164.667963 C59.7209612,163.310589 61.5131304,161.891452 63.2445898,160.431257 C105.36741,180.133187 151.134928,180.133187 192.754523,160.431257 C194.506336,161.891452 196.298154,163.310589 198.110326,164.667963 C191.183787,168.842556 183.854737,172.420929 176.223542,175.320965 C180.230393,183.341335 184.861538,190.991831 190.096624,198.16893 C211.238746,191.588051 232.743023,181.531619 254.911949,164.955721 C260.227747,108.668201 245.831087,59.8662432 216.856339,16.5966031 Z M85.4738752,135.09489 C72.8290281,135.09489 62.4592217,123.290155 62.4592217,108.914901 C62.4592217,94.5396472 72.607595,82.7145587 85.4738752,82.7145587 C98.3405064,82.7145587 108.709962,94.5189427 108.488529,108.914901 C108.508531,123.290155 98.3405064,135.09489 85.4738752,135.09489 Z M170.525237,135.09489 C157.88039,135.09489 147.510584,123.290155 147.510584,108.914901 C147.510584,94.5396472 157.658606,82.7145587 170.525237,82.7145587 C183.391518,82.7145587 193.761324,94.5189427 193.539891,108.914901 C193.539891,123.290155 183.391518,135.09489 170.525237,135.09489 Z" fill="#5865F2" fill-rule="nonzero"> </path> </g> </g>
<g id="SVGRepo_iconCarrier"> <g> <path d="M216.856339,16.5966031 C200.285002,8.84328665 182.566144,3.2084988 164.041564,0 C161.766523,4.11318106 159.108624,9.64549908 157.276099,14.0464379 C137.583995,11.0849896 118.072967,11.0849896 98.7430163,14.0464379 C96.9108417,9.64549908 94.1925838,4.11318106 91.8971895,0 C73.3526068,3.2084988 55.6133949,8.86399117 39.0420583,16.6376612 C5.61752293,67.146514 -3.4433191,116.400813 1.08711069,164.955721 C23.2560196,181.510915 44.7403634,191.567697 65.8621325,198.148576 C71.0772151,190.971126 75.7283628,183.341335 79.7352139,175.300261 C72.104019,172.400575 64.7949724,168.822202 57.8887866,164.667963 C59.7209612,163.310589 61.5131304,161.891452 63.2445898,160.431257 C105.36741,180.133187 151.134928,180.133187 192.754523,160.431257 C194.506336,161.891452 196.298154,163.310589 198.110326,164.667963 C191.183787,168.842556 183.854737,172.420929 176.223542,175.320965 C180.230393,183.341335 184.861538,190.991831 190.096624,198.16893 C211.238746,191.588051 232.743023,181.531619 254.911949,164.955721 C260.227747,108.668201 245.831087,59.8662432 216.856339,16.5966031 Z M85.4738752,135.09489 C72.8290281,135.09489 62.4592217,123.290155 62.4592217,108.914901 C62.4592217,94.5396472 72.607595,82.7145587 85.4738752,82.7145587 C98.3405064,82.7145587 108.709962,94.5189427 108.488529,108.914901 C108.508531,123.290155 98.3405064,135.09489 85.4738752,135.09489 Z M170.525237,135.09489 C157.88039,135.09489 147.510584,123.290155 147.510584,108.914901 C147.510584,94.5396472 157.658606,82.7145587 170.525237,82.7145587 C183.391518,82.7145587 193.761324,94.5189427 193.539891,108.914901 C193.539891,123.290155 183.391518,135.09489 170.525237,135.09489 Z" fill="#5865F2" fill-rule="nonzero"> </path> </g> </g>
</svg>

<?xml version="1.0" encoding="UTF-8" standalone="no"?>
<!-- Uploaded to: SVG Repo, www.svgrepo.com, Transformed by: SVG Repo Mixer Tools -->

<svg
   width="64"
   height="50.260532"
   viewBox="-84.48 -84.48 33.9968 26.698395"
   version="1.1"
   preserveAspectRatio="xMidYMid"
   fill="#000000"
   stroke="#000000"
   stroke-width="0.00256"
   id="svg13"
   sodipodi:docname="discord.svg"
   inkscape:version="1.2.2 (732a01da63, 2022-12-09)"
   xmlns:inkscape="http://www.inkscape.org/namespaces/inkscape"
   xmlns:sodipodi="http://sodipodi.sourceforge.net/DTD/sodipodi-0.dtd"
   xmlns="http://www.w3.org/2000/svg"
   xmlns:svg="http://www.w3.org/2000/svg">
  <defs
     id="defs17" />
  <sodipodi:namedview
     id="namedview15"
     pagecolor="#ffffff"
     bordercolor="#000000"
     borderopacity="0.25"
     inkscape:showpageshadow="2"
     inkscape:pageopacity="0.0"
     inkscape:pagecheckerboard="0"
     inkscape:deskcolor="#d1d1d1"
     showgrid="false"
     inkscape:zoom="2.0725"
     inkscape:cx="25.09047"
     inkscape:cy="43.425814"
     inkscape:window-width="1920"
     inkscape:window-height="1009"
     inkscape:window-x="-8"
     inkscape:window-y="-8"
     inkscape:window-maximized="1"
     inkscape:current-layer="svg13" />
  <g
     id="SVGRepo_bgCarrier"
     stroke-width="0"
     transform="translate(-77.836026,-77.824071)" />
  <g
     id="SVGRepo_tracerCarrier"
     stroke-linecap="round"
     stroke-linejoin="round"
     stroke="#e8e8e8"
     stroke-width="13.312"
     transform="matrix(0.12624504,0,0,0.12624504,-83.641231,-83.639722)">
    <g
       id="g5">
      <path
         d="M 216.85634,16.596603 C 200.285,8.8432867 182.56614,3.2084988 164.04156,0 c -2.27504,4.1131811 -4.93294,9.6454991 -6.76546,14.046438 -19.69211,-2.961448 -39.20313,-2.961448 -58.533084,0 C 96.910842,9.6454991 94.192584,4.1131811 91.897189,0 73.352607,3.2084988 55.613395,8.8639912 39.042058,16.637661 5.6175229,67.146514 -3.4433191,116.40081 1.0871107,164.95572 23.25602,181.51091 44.740363,191.5677 65.862133,198.14858 c 5.215082,-7.17745 9.86623,-14.80725 13.873081,-22.84832 -7.631195,-2.89969 -14.940242,-6.47806 -21.846427,-10.6323 1.832174,-1.35737 3.624343,-2.77651 5.355803,-4.2367 42.12282,19.70193 87.89034,19.70193 129.50993,0 1.75182,1.46019 3.54363,2.87933 5.35581,4.2367 -6.92654,4.1746 -14.25559,7.75297 -21.88679,10.653 4.00685,8.02037 8.638,15.67087 13.87308,22.84797 21.14213,-6.58088 42.6464,-16.63731 64.81533,-33.21321 5.3158,-56.28752 -9.08086,-105.089477 -38.05561,-148.359117 z M 85.473875,135.09489 c -12.644847,0 -23.014653,-11.80473 -23.014653,-26.17999 0,-14.375253 10.148373,-26.200341 23.014653,-26.200341 12.866631,0 23.236085,11.804384 23.014655,26.200341 0.02,14.37526 -10.148024,26.17999 -23.014655,26.17999 z m 85.051365,0 c -12.64485,0 -23.01466,-11.80473 -23.01466,-26.17999 0,-14.375253 10.14803,-26.200341 23.01466,-26.200341 12.86628,0 23.23608,11.804384 23.01465,26.200341 0,14.37526 -10.14837,26.17999 -23.01465,26.17999 z"
         fill="#5865f2"
         fill-rule="nonzero"
         id="path3" />
    </g>
  </g>
  <g
     id="SVGRepo_iconCarrier"
     transform="matrix(0.12624504,0,0,0.12624504,-83.641231,-83.639722)">
    <g
       id="g10">
      <path
         d="M 216.85634,16.596603 C 200.285,8.8432867 182.56614,3.2084988 164.04156,0 c -2.27504,4.1131811 -4.93294,9.6454991 -6.76546,14.046438 -19.69211,-2.961448 -39.20313,-2.961448 -58.533084,0 C 96.910842,9.6454991 94.192584,4.1131811 91.897189,0 73.352607,3.2084988 55.613395,8.8639912 39.042058,16.637661 5.6175229,67.146514 -3.4433191,116.40081 1.0871107,164.95572 23.25602,181.51091 44.740363,191.5677 65.862133,198.14858 c 5.215082,-7.17745 9.86623,-14.80725 13.873081,-22.84832 -7.631195,-2.89969 -14.940242,-6.47806 -21.846427,-10.6323 1.832174,-1.35737 3.624343,-2.77651 5.355803,-4.2367 42.12282,19.70193 87.89034,19.70193 129.50993,0 1.75182,1.46019 3.54363,2.87933 5.35581,4.2367 -6.92654,4.1746 -14.25559,7.75297 -21.88679,10.653 4.00685,8.02037 8.638,15.67087 13.87308,22.84797 21.14213,-6.58088 42.6464,-16.63731 64.81533,-33.21321 5.3158,-56.28752 -9.08086,-105.089477 -38.05561,-148.359117 z M 85.473875,135.09489 c -12.644847,0 -23.014653,-11.80473 -23.014653,-26.17999 0,-14.375253 10.148373,-26.200341 23.014653,-26.200341 12.866631,0 23.236085,11.804384 23.014655,26.200341 0.02,14.37526 -10.148024,26.17999 -23.014655,26.17999 z m 85.051365,0 c -12.64485,0 -23.01466,-11.80473 -23.01466,-26.17999 0,-14.375253 10.14803,-26.200341 23.01466,-26.200341 12.86628,0 23.23608,11.804384 23.01465,26.200341 0,14.37526 -10.14837,26.17999 -23.01465,26.17999 z"
         fill="#5865f2"
         fill-rule="nonzero"
         id="path8" />
    </g>
  </g>
</svg>
